src/actions/24/kr_unselect.svg

<svg xmlns="http://www.w3.org/2000/svg" viewBox="0 0 24 24">
  <defs id="defs3051">
    <style type="text/css" id="current-color-scheme">
      .ColorScheme-Text {
        color:#2e3440;
      }
      </style>
  </defs><g transform="translate(1,1)">
 <path 
     style="fill:currentColor;fill-opacity:1;stroke:none" 
     d="M 6 3 A 1 1 0 0 0 5 4 A 1 1 0 0 0 6 5 A 1 1 0 0 0 7 4 A 1 1 0 0 0 6 3 z M 7 6 L 7.0058594 19 L 10.900391 14.300781 L 17 14 L 7 6 z "
     class="ColorScheme-Text"
     />
    <path
     style="fill:#bf616a;fill-opacity:1;stroke:none"
     d="M 14.707031 3 L 14 3.7070312 L 15.792969 5.5 L 14 7.2929688 L 14.707031 8 L 16.5 6.2070312 L 18.292969 8 L 19 7.2929688 L 17.207031 5.5 L 19 3.7070312 L 18.292969 3 L 16.5 4.7929688 L 14.707031 3 z "
     />
</g></svg>

<svg viewBox="0 0 24 24" xmlns="http://www.w3.org/2000/svg">
 <defs>
  <style type="text/css">.ColorScheme-Text {
        color:#2e3440;
      }</style>
 </defs>
 <g transform="translate(1,1)">
  <path class="ColorScheme-Text" d="m6 3a1 1 0 0 0-1 1 1 1 0 0 0 1 1 1 1 0 0 0 1-1 1 1 0 0 0-1-1zm1 3 0.0058594 13 3.8945-4.6992 6.0996-0.30078-10-8z" fill="currentColor"/>
  <path d="m14.707 3-0.70703 0.70703 1.793 1.793-1.793 1.793 0.70703 0.70703 1.793-1.793 1.793 1.793 0.70703-0.70703-1.793-1.793 1.793-1.793-0.70703-0.70703-1.793 1.793-1.793-1.793z" fill="#bf616a"/>
 </g>
</svg>
